src/22/mimetypes/x-office-contact.svg

<?xml version="1.0" encoding="UTF-8" standalone="no"?>

<!-- Created with Inkscape (http://www.inkscape.org/) -->
<svg width="22" version="1.1" xmlns="http://www.w3.org/2000/svg" height="22" xmlns:inkscape="http://www.inkscape.org/namespaces/inkscape">
 <defs id="defs3871"/>
 <metadata id="metadata3874"/>
 <g inkscape:label="Capa 1" inkscape:groupmode="layer" id="layer1-8" transform="matrix(1.3333333 0 0 1.3333333 0.33333 -1381.48293)">
  <path style="fill:#22a7f0" id="rect4109" d="M 8 6 C 6.3380003 6 5 7.338 5 9 C 5 10.662 6.3380003 12 8 12 C 9.6619997 12 11 10.662 11 9 C 11 7.338 9.6619997 6 8 6 z M 8 7 A 2 2 0 0 1 10 9 A 2 2 0 0 1 8 11 A 2 2 0 0 1 6 9 A 2 2 0 0 1 8 7 z M 8 13 C 5.2299834 13 3 15.23 3 18 L 3 19 L 13 19 L 13 18 C 13 15.23 10.770017 13 8 13 z M 8 14 C 10.216017 14 12 15.784 12 18 L 4 18 C 4 15.784 5.7839834 14 8 14 z " transform="matrix(0.75000002 0 0 0.75000002 -0.249998 1036.1122)"/>
  <path style="fill:#22a7f0" id="path4139" d="M 14 3 C 12.338 3 11 4.338 11 6 C 11 7.662 12.338 9 14 9 C 15.662 9 17 7.662 17 6 C 17 4.338 15.662 3 14 3 z M 14 4 A 2 2 0 0 1 16 6 A 2 2 0 0 1 14 8 A 2 2 0 0 1 12 6 A 2 2 0 0 1 14 4 z M 14 10 C 13.353654 10 12.744006 10.134128 12.181641 10.361328 L 12.636719 11.275391 C 13.064535 11.114991 13.514485 11 14 11 C 16.21602 11 18 12.784 18 15 L 14.5 15 L 15 16 L 19 16 L 19 15 C 19 12.23 16.77002 10 14 10 z " transform="matrix(0.75000002 0 0 0.75000002 -0.249998 1036.1122)"/>
 </g>
</svg>

<svg width="22" xmlns="http://www.w3.org/2000/svg" height="22"><g fill="#22a7f0"><path d="M8 6C6.338 6 5 7.338 5 9s1.338 3 3 3 3-1.338 3-3-1.338-3-3-3zm0 1a2 2 0 0 1 2 2 2 2 0 0 1-2 2 2 2 0 0 1-2-2 2 2 0 0 1 2-2zm0 6c-2.77 0-5 2.23-5 5v1h10v-1c0-2.77-2.23-5-5-5zm0 1c2.216 0 4 1.784 4 4H4c0-2.216 1.784-4 4-4zM14 3c-1.662 0-3 1.338-3 3s1.338 3 3 3 3-1.338 3-3-1.338-3-3-3zm0 1a2 2 0 0 1 2 2 2 2 0 0 1-2 2 2 2 0 0 1-2-2 2 2 0 0 1 2-2zm0 6c-.646 0-1.256.134-1.818.361l.455.914c.428-.16.877-.275 1.363-.275 2.216 0 4 1.784 4 4h-3.5l.5 1h4v-1c0-2.77-2.23-5-5-5z"/></g></svg>
